X: 8464
T: Craigellachie Lassies
R: jig
M: 6/8
K: Dmajor
d2d dcB|ABG FED|d2d dcd|efd cBA|
d2d dcB|ABG FED|ECA, A,B,C|D3- D2:|
f/g/|afd def|gec Ace|fdA GBd|ecA FGA|
BGE EFG|AFD DFA|ECA, A,B,C|D3- D2|
f/g/|afd afd|gec gec|fdA fdA|ecA ecA|
BGB dcB AFA Bcd|Bgf edc|d3- d2||

